X: 1
T: Tin Wedding
M: 4/4
L: 1/8
Q: 325
S: Luke O'Malley vol 1
R: hornpipe
K: C
(3GAB |cG G2 EGCG|(3FGF DG (3FGF DG|EGcd ecfe|(3ded (3cBA G2 AB|
cG G2 (3EFG CE | FGDG (3FGF DG | EGcd edcB | c2 e2 c2 :|
|: Bc | dBGB dBgf | ecGc ecag | ^fdAd fdba | (3gag (3fgf (3efe (3ded|
cG G2 EGCG | (3FGF DG (3FGF DG | EGcd edcB | c2 e2 c2 :|
